src/images/about/hero.svg

<svg width="375" height="211" viewBox="0 0 375 211" fill="none" xmlns="http://www.w3.org/2000/svg">
<g clip-path="url(#clip0)">
<path opacity="0.1" fill-rule="evenodd" clip-rule="evenodd" d="M-284.54 51.5055L-262.147 125.128H-306.013L-284.54 51.5055ZM-319.197 159.704H-249.266L-231.699 206.648H-189.476L-262.176 10.216H-306.577L-379.562 206.648H-336.765L-319.197 159.704ZM-336.072 207.648H-381L-307.272 9.216H-261.48L-188.04 207.648H-232.392L-249.96 160.704H-318.504L-336.072 207.648ZM-284.52 55.008L-304.68 124.128H-263.496L-284.52 55.008ZM-138.012 190.944L-136.13 190.472C-129.739 202.421 -114.612 209.528 -97.5562 209.528C-79.9681 209.528 -64.9622 203.3 -52.4792 190.533L-52.4714 190.525C-39.7277 177.781 -33.4683 161.058 -33.4683 140.832C-33.4683 120.025 -39.7303 103.304 -52.4713 90.5631L-52.4793 90.5552C-64.9704 77.7801 -79.9796 71.272 -97.5562 71.272C-114.601 71.272 -129.747 78.6611 -136.14 90.0572L-138.012 93.3945V1H-175.756V206.648H-138.012V190.944ZM-137.012 207.648H-176.756V0H-137.012V89.568C-136.699 89.009 -136.365 88.4597 -136.012 87.9204C-128.912 77.0678 -114.018 70.272 -97.5562 70.272C-79.7002 70.272 -64.4362 76.896 -51.7643 89.856C-38.8042 102.816 -32.4683 119.808 -32.4683 140.832C-32.4683 161.28 -38.8042 178.272 -51.7643 191.232C-64.4362 204.192 -79.7002 210.528 -97.5562 210.528C-114.018 210.528 -128.912 203.994 -136.012 192.668C-136.365 192.105 -136.699 191.53 -137.012 190.944V207.648ZM-137.148 139.968C-137.148 119.82 -122.864 107 -105.044 107C-87.2059 107 -72.9402 120.702 -72.9402 139.968C-72.9402 160.092 -87.2 173.512 -105.044 173.512C-122.906 173.512 -137.148 159.21 -137.148 139.968ZM52.3658 171.784C34.8278 171.784 21.1258 158.959 21.1258 139.968C21.1258 121.848 34.8215 108.44 52.3658 108.44C69.8976 108.44 83.8938 121.835 83.8938 139.968C83.8938 158.965 70.1855 171.784 52.3658 171.784ZM101.21 189.934C114.529 177.181 121.35 160.46 121.35 139.968C121.35 119.48 114.532 103.046 101.21 90.2903C87.8717 77.5194 71.7083 71.272 52.3658 71.272C33.0232 71.272 16.8598 77.5194 3.52133 90.2903C-9.79343 103.038 -16.3302 119.469 -16.3302 139.968C-16.3302 160.471 -9.79053 177.188 3.52133 189.934C16.8598 202.705 33.0232 208.952 52.3658 208.952C71.7083 208.952 87.8717 202.705 101.21 189.934ZM231.974 207.648H272.006V73.152H231.974V144.288C231.974 163.008 221.606 171.648 207.782 171.648C195.974 171.648 183.878 164.16 183.878 144.864V73.152H143.846V153.504C143.846 190.368 165.734 210.528 197.126 210.528C210.04 210.528 223.74 202.926 230.974 190.974C231.323 190.398 231.657 189.812 231.974 189.216V207.648ZM144.846 74.152V153.504C144.846 171.737 150.256 185.721 159.431 195.142C168.605 204.562 181.647 209.528 197.126 209.528C210.29 209.528 224.352 201.382 231.092 188.745L232.974 189.216V206.648H271.006V74.152H232.974V144.288C232.974 153.83 230.329 160.946 225.784 165.681C221.236 170.418 214.904 172.648 207.782 172.648C201.675 172.648 195.434 170.711 190.713 166.216C185.978 161.709 182.878 154.73 182.878 144.864V74.152H144.846ZM316.886 74.152H292.406V103.832H316.886V206.648H354.63V103.832H382.854V74.152H354.63V22.6H316.886V74.152ZM355.63 21.6V73.152H383.854V104.832H355.63V207.648H315.886V104.832H291.406V73.152H315.886V21.6H355.63ZM566.228 162.003C559.414 168.521 551.1 171.784 541.633 171.784C532.162 171.784 523.858 168.519 516.765 162.017L516.757 162.01L516.75 162.003C509.918 155.468 506.361 147.139 506.361 136.8V10.216H465.449V136.8C465.449 158.433 472.836 176.005 487.864 189.332C502.943 202.703 520.85 209.528 541.633 209.528C562.417 209.528 580.32 202.703 595.106 189.338C609.852 176.01 617.241 158.434 617.241 136.8V10.216H576.905V136.8C576.905 146.862 573.339 155.188 566.228 162.003ZM575.905 136.8C575.905 146.592 572.449 154.656 565.537 161.28C558.913 167.616 550.849 170.784 541.633 170.784C532.417 170.784 524.353 167.616 517.441 161.28C510.817 154.944 507.361 146.88 507.361 136.8V9.216H464.449V136.8C464.449 158.688 471.937 176.544 487.201 190.08C502.465 203.616 520.609 210.528 541.633 210.528C562.657 210.528 580.801 203.616 595.777 190.08C610.753 176.544 618.241 158.688 618.241 136.8V9.216H575.905V136.8ZM701.979 155.993L701.988 155.995C706.777 157.301 710.268 158.788 712.567 160.775C714.931 162.819 715.973 165.337 715.973 168.48C715.973 172.206 713.932 175.225 710.771 177.307C707.626 179.378 703.329 180.563 698.588 180.712L698.572 180.712H698.557C692.998 180.712 687.882 178.76 684.108 175.741C680.619 172.95 678.217 169.192 677.758 165.16H642.275C642.794 178.521 648.141 189.39 658.833 197.342C669.875 205.552 682.908 209.528 697.405 209.528C712.79 209.528 726.138 205.826 737.483 198.736L737.492 198.73C749.003 191.711 754.581 181.666 754.581 168.48C754.581 164.501 754.295 160.764 752.604 156.657C750.909 152.541 747.769 147.973 741.932 142.421M742.621 141.696L741.932 142.421C736.312 137.082 728.694 132.836 718.756 130.281L718.748 130.278L695.993 124.23C692.183 123.204 689.145 121.859 687.007 120.071C684.836 118.255 683.608 115.992 683.447 113.243L683.446 113.232C683.285 109.851 684.754 107.015 687.46 105.065C690.131 103.14 693.959 102.104 698.557 102.104C703.706 102.104 707.71 103.13 710.479 105.306C713.062 107.336 714.439 110.26 714.76 113.912H750.522C750.019 99.4286 744.671 88.8676 734.573 82.0446C724.106 74.9721 711.348 71.272 696.253 71.272C682.347 71.272 670.464 75.2398 660.277 82.88C650.075 90.531 645.113 98.914 644.836 108.605L644.836 108.61C644.693 112.76 644.768 115.912 645.395 119.15C646.02 122.383 647.206 125.752 649.342 130.31C653.755 138.839 665.773 146.51 684.41 151.385L701.979 155.993M648.445 130.752C644.125 121.536 643.549 116.928 643.837 108.576C644.125 98.496 649.309 89.856 659.677 82.08C670.045 74.304 682.141 70.272 696.253 70.272C711.517 70.272 724.477 74.016 735.133 81.216C745.555 88.2578 751.018 99.1565 751.522 113.912C751.534 114.243 751.542 114.577 751.549 114.912H713.821C713.533 107.136 708.637 103.104 698.557 103.104C689.629 103.104 684.157 107.136 684.445 113.184C684.733 118.08 688.765 121.248 696.253 123.264L719.005 129.312C729.085 131.904 736.861 136.224 742.621 141.696C754.429 152.928 755.581 160.416 755.581 168.48C755.581 182.016 749.821 192.384 738.013 199.584C726.493 206.784 712.957 210.528 697.405 210.528C682.717 210.528 669.469 206.496 658.237 198.144C647.271 189.99 641.796 178.817 641.274 165.16C641.261 164.828 641.252 164.495 641.245 164.16H678.685C678.973 172.224 687.901 179.712 698.557 179.712C707.773 179.424 714.973 175.104 714.973 168.48C714.973 162.72 711.229 159.552 701.725 156.96L684.157 152.352C665.437 147.456 653.053 139.68 648.445 130.752ZM-105.044 108C-122.324 108 -136.148 120.384 -136.148 139.968C-136.148 158.688 -122.324 172.512 -105.044 172.512C-87.7643 172.512 -73.9402 159.552 -73.9402 139.968C-73.9402 121.248 -87.7643 108 -105.044 108ZM22.1258 139.968C22.1258 158.4 35.3737 170.784 52.3658 170.784C69.6458 170.784 82.8938 158.4 82.8938 139.968C82.8938 122.4 69.3578 109.44 52.3658 109.44C35.3737 109.44 22.1258 122.4 22.1258 139.968ZM122.35 139.968C122.35 160.704 115.438 177.696 101.902 190.656C88.3658 203.616 71.9498 209.952 52.3658 209.952C32.7818 209.952 16.3658 203.616 2.82977 190.656C-10.7062 177.696 -17.3302 160.704 -17.3302 139.968C-17.3302 119.232 -10.7062 102.528 2.82977 89.568C16.3658 76.608 32.7818 70.272 52.3658 70.272C71.9498 70.272 88.3658 76.608 101.902 89.568C115.438 102.528 122.35 119.232 122.35 139.968Z" fill="white"/>
</g>
<defs>
<clipPath id="clip0">
<rect width="375" height="211" fill="white"/>
</clipPath>
</defs>
</svg>

<svg width="375" height="211" fill="none" xmlns="http://www.w3.org/2000/svg"><g clip-path="url(#clip0)"><path opacity=".1" fill-rule="evenodd" clip-rule="evenodd" d="M-284.54 51.505l22.393 73.623h-43.866l21.473-73.623zm-34.657 108.199h69.931l17.567 46.944h42.223l-72.7-196.432h-44.401l-72.985 196.432h42.797l17.568-46.944zm-16.875 47.944H-381l73.728-198.432h45.792l73.44 198.432h-44.352l-17.568-46.944h-68.544l-17.568 46.944zm51.552-152.64l-20.16 69.12h41.184l-21.024-69.12zm146.508 135.936l1.882-.472c6.391 11.949 21.518 19.056 38.574 19.056 17.588 0 32.594-6.228 45.077-18.995l.008-.008c12.743-12.744 19.003-29.467 19.003-49.693 0-20.807-6.262-37.528-19.003-50.269l-.008-.008C-64.97 77.78-79.98 71.272-97.556 71.272c-17.045 0-32.191 7.39-38.584 18.785l-1.872 3.337V1h-37.744v205.648h37.744v-15.704zm1 16.704h-39.744V0h39.744v89.568c.313-.559.647-1.108 1-1.648 7.1-10.852 21.994-17.648 38.456-17.648 17.856 0 33.12 6.624 45.792 19.584 12.96 12.96 19.296 29.952 19.296 50.976 0 20.448-6.336 37.44-19.296 50.4-12.672 12.96-27.936 19.296-45.792 19.296-16.462 0-31.356-6.534-38.456-17.86a28.705 28.705 0 01-1-1.724v16.704zm-.136-67.68c0-20.148 14.284-32.968 32.104-32.968 17.838 0 32.104 13.702 32.104 32.968 0 20.124-14.26 33.544-32.104 33.544-17.862 0-32.104-14.302-32.104-33.544zm189.514 31.816c-17.538 0-31.24-12.825-31.24-31.816 0-18.12 13.695-31.528 31.24-31.528 17.532 0 31.528 13.395 31.528 31.528 0 18.997-13.709 31.816-31.528 31.816zm48.844 18.15c13.319-12.753 20.14-29.474 20.14-49.966 0-20.488-6.818-36.922-20.14-49.678-13.338-12.77-29.502-19.018-48.844-19.018-19.343 0-35.506 6.247-48.845 19.018-13.314 12.748-19.851 29.179-19.851 49.678 0 20.503 6.54 37.22 19.851 49.966 13.339 12.771 29.502 19.018 48.845 19.018 19.342 0 35.506-6.247 48.844-19.018zm130.764 17.714h40.032V73.152h-40.032v71.136c0 18.72-10.368 27.36-24.192 27.36-11.808 0-23.904-7.488-23.904-26.784V73.152h-40.032v80.352c0 36.864 21.888 57.024 53.28 57.024 12.914 0 26.614-7.602 33.848-19.554.349-.576.683-1.162 1-1.758v18.432zM144.846 74.152v79.352c0 18.233 5.41 32.217 14.585 41.638 9.174 9.42 22.216 14.386 37.695 14.386 13.164 0 27.226-8.146 33.966-20.783l1.882.471v17.432h38.032V74.152h-38.032v70.136c0 9.542-2.645 16.658-7.19 21.393-4.548 4.737-10.88 6.967-18.002 6.967-6.107 0-12.348-1.937-17.069-6.432-4.735-4.507-7.835-11.486-7.835-21.352V74.152h-38.032zm172.04 0h-24.48v29.68h24.48v102.816h37.744V103.832h28.224v-29.68H354.63V22.6h-37.744v51.552zM355.63 21.6v51.552h28.224v31.68H355.63v102.816h-39.744V104.832h-24.48v-31.68h24.48V21.6h39.744zm210.598 140.403c-6.814 6.518-15.128 9.781-24.595 9.781-9.471 0-17.775-3.265-24.868-9.767l-.008-.007-.007-.007c-6.832-6.535-10.389-14.864-10.389-25.203V10.216h-40.912V136.8c0 21.633 7.387 39.205 22.415 52.532 15.079 13.371 32.986 20.196 53.769 20.196 20.784 0 38.687-6.825 53.473-20.19 14.746-13.328 22.135-30.904 22.135-52.538V10.216h-40.336V136.8c0 10.062-3.566 18.388-10.677 25.203zm9.677-25.203c0 9.792-3.456 17.856-10.368 24.48-6.624 6.336-14.688 9.504-23.904 9.504s-17.28-3.168-24.192-9.504c-6.624-6.336-10.08-14.4-10.08-24.48V9.216h-42.912V136.8c0 21.888 7.488 39.744 22.752 53.28 15.264 13.536 33.408 20.448 54.432 20.448s39.168-6.912 54.144-20.448c14.976-13.536 22.464-31.392 22.464-53.28V9.216h-42.336V136.8zm126.074 19.193l.009.002c4.789 1.306 8.28 2.793 10.579 4.78 2.364 2.044 3.406 4.562 3.406 7.705 0 3.726-2.041 6.745-5.202 8.827-3.145 2.071-7.442 3.256-12.183 3.405h-.031c-5.559 0-10.675-1.952-14.449-4.971-3.489-2.791-5.891-6.549-6.35-10.581h-35.483c.519 13.361 5.866 24.23 16.558 32.182 11.042 8.21 24.075 12.186 38.572 12.186 15.385 0 28.733-3.702 40.078-10.792l.009-.006c11.511-7.019 17.089-17.064 17.089-30.25 0-3.979-.286-7.716-1.977-11.823-1.695-4.116-4.835-8.684-10.672-14.236m.689-.725l-.689.725c-5.62-5.339-13.238-9.585-23.176-12.14l-.008-.003-22.755-6.048c-3.81-1.026-6.848-2.371-8.986-4.159-2.171-1.816-3.399-4.079-3.56-6.828l-.001-.011c-.161-3.381 1.308-6.217 4.014-8.167 2.671-1.925 6.499-2.961 11.097-2.961 5.149 0 9.153 1.026 11.922 3.202 2.583 2.03 3.96 4.954 4.281 8.606h35.762c-.503-14.483-5.851-25.044-15.949-31.867-10.467-7.073-23.225-10.773-38.32-10.773-13.906 0-25.789 3.968-35.976 11.608-10.202 7.651-15.164 16.034-15.441 25.725v.005c-.143 4.15-.068 7.302.559 10.54.625 3.233 1.811 6.602 3.947 11.16 4.413 8.529 16.431 16.2 35.068 21.075l17.569 4.608m-53.534-25.241c-4.32-9.216-4.896-13.824-4.608-22.176.288-10.08 5.472-18.72 15.84-26.496 10.368-7.776 22.464-11.808 36.576-11.808 15.264 0 28.224 3.744 38.88 10.944 10.422 7.042 15.885 17.94 16.389 32.696.012.331.02.665.027 1h-37.728c-.288-7.776-5.184-11.808-15.264-11.808-8.928 0-14.4 4.032-14.112 10.08.288 4.896 4.32 8.064 11.808 10.08l22.752 6.048c10.08 2.592 17.856 6.912 23.616 12.384 11.808 11.232 12.96 18.72 12.96 26.784 0 13.536-5.76 23.904-17.568 31.104-11.52 7.2-25.056 10.944-40.608 10.944-14.688 0-27.936-4.032-39.168-12.384-10.966-8.154-16.441-19.327-16.963-32.984a54.832 54.832 0 01-.029-1h37.44c.288 8.064 9.216 15.552 19.872 15.552 9.216-.288 16.416-4.608 16.416-11.232 0-5.76-3.744-8.928-13.248-11.52l-17.568-4.608c-18.72-4.896-31.104-12.672-35.712-21.6zM-105.044 108c-17.28 0-31.104 12.384-31.104 31.968 0 18.72 13.824 32.544 31.104 32.544s31.104-12.96 31.104-32.544c0-18.72-13.824-31.968-31.104-31.968zm127.17 31.968c0 18.432 13.248 30.816 30.24 30.816 17.28 0 30.528-12.384 30.528-30.816 0-17.568-13.536-30.528-30.528-30.528-16.992 0-30.24 12.96-30.24 30.528zm100.224 0c0 20.736-6.912 37.728-20.448 50.688-13.536 12.96-29.952 19.296-49.536 19.296s-36-6.336-49.536-19.296c-13.536-12.96-20.16-29.952-20.16-50.688s6.624-37.44 20.16-50.4c13.536-12.96 29.952-19.296 49.536-19.296s36 6.336 49.536 19.296c13.536 12.96 20.448 29.664 20.448 50.4z" fill="#fff"/></g><defs><clipPath id="clip0"><path fill="#fff" d="M0 0h375v211H0z"/></clipPath></defs></svg>
